X:26
T:Friendly Visit
Z: id:dc-hornpipe-25
M:C|
L:1/8
K:G Major
BA|G2DG BGBd|c2AB cdef|g2df ecAG|FGAB cAFD|!
G2DG BGBd|c2AB cdef|gdBG FAdc|B2G2 G2:|!
(3Bcd|g2dB GBdg|e2cA FGAg|f2ed ^cdeg|(3fgf (3efe dcBA|!
G2DG BGBd|c2AB cdef|gdBG FAdc|B2G2 G2:|!

